X: 154
T: the Hessian Tattoo
B: C. & S. Thompson, "The Compleat Tutor for the Fife" c.1760 p.15 #4
S: http://imslp.org/wiki/The_Compleat_Tutor_for_the_Fife_(Anonymous)
Z: 2014 John Chambers <jc:trillian.mit.edu>
M: 3/4
L: 1/8
K: G
% - - - - - - - - - - - - - - - - - - - - - - - - -
|:\
D2 G2 AG | B2 G2 D2 |\
G/A/B/c/ d>ded | B4 ((3edc) |\
B2 ^c2 d2 :: d2 ((3edc) B2 |
c>d B4 | edcBAG |\
A2 D2 G2 | ABedcB |\
g2 ((3dcB) ((3cBA) | G4 z2 :|
% - - - - - - - - - - - - - - - - - - - - - - - - -
